X:19
T:Mum's Jig (B en boucle)
R: jig
M: 6/8
Q:3/8=120
L: 1/8
K:Ador
%|: EAA ABc | B2A A2G | EAA ABc | B2B BAG |
%   EAA ABc | B2A Agf | g2g gfe | dBG BAG :|
|: AaA g2g | fed edB | AaA g3 | BAG BAG |
   AaA g2g | fed edB | ABc Bcd | cde dBG :|
%
|: AaA g2g | fed edB | AaA g3 | BAG BAG |
   AaA g2g | fed edB | ABc Bcd | cde dBG :|
%
|: AaA g2g | fed edB | AaA g3 | BAG BAG |
   AaA g2g | fed edB | ABc Bcd | cde dBG :|
%
|: AaA g2g | fed edB | AaA g3 | BAG BAG |
   AaA g2g | fed edB | ABc Bcd | cde dBG :|
%
|: AaA g2g | fed edB | AaA g3 | BAG BAG |
   AaA g2g | fed edB | ABc Bcd | cde dBG :|
%
|: AaA g2g | fed edB | AaA g3 | BAG BAG |
   AaA g2g | fed edB | ABc Bcd | cde dBG :|
%
|: AaA g2g | fed edB | AaA g3 | BAG BAG |
   AaA g2g | fed edB | ABc Bcd | cde dBG :|
%
|: AaA g2g | fed edB | AaA g3 | BAG BAG |
   AaA g2g | fed edB | ABc Bcd | cde dBG :|
%
|: AaA g2g | fed edB | AaA g3 | BAG BAG |
   AaA g2g | fed edB | ABc Bcd | cde dBG :|
%
|: AaA g2g | fed edB | AaA g3 | BAG BAG |
   AaA g2g | fed edB | ABc Bcd | cde dBG :|
%
|: AaA g2g | fed edB | AaA g3 | BAG BAG |
   AaA g2g | fed edB | ABc Bcd | cde dBG :|
%

